static/img/svg/user-plus.svg

<svg xmlns="http://www.w3.org/2000/svg" width="24" height="24" viewBox="0 0 24 24"><path d="M19 8h-2v3h-3v2h3v3h2v-3h3v-2h-3zM4 18.5C4 16.264 5.374 14 8 14s4 2.264 4 4.5v.5h2v-.5c0-2.54-1.212-4.651-3.077-5.729C11.593 12.063 12 11.1 12 10c0-2.28-1.72-4-4-4s-4 1.72-4 4c0 1.1.407 2.063 1.077 2.771C3.212 13.849 2 15.96 2 18.5v.5h2v-.5zM6 10c0-1.178.822-2 2-2s2 .822 2 2-.822 2-2 2-2-.822-2-2z"/></svg>

<svg xmlns="http://www.w3.org/2000/svg" width="24" height="24" viewBox="0 0 24 24"><path d="M19 8L17 8 17 11 14 11 14 13 17 13 17 16 19 16 19 13 22 13 22 11 19 11zM4 18.5C4 16.264 5.374 14 8 14s4 2.264 4 4.5V19h2v-.5c0-2.54-1.212-4.651-3.077-5.729C11.593 12.063 12 11.1 12 10c0-2.28-1.72-4-4-4s-4 1.72-4 4c0 1.1.407 2.063 1.077 2.771C3.212 13.849 2 15.96 2 18.5V19h2V18.5zM8 8c1.178 0 2 .822 2 2s-.822 2-2 2-2-.822-2-2S6.822 8 8 8z"/></svg>
